source/img/timer-icon.svg

<svg width="28" height="28" viewBox="0 0 28 28" fill="none" xmlns="http://www.w3.org/2000/svg">
<path fill-rule="evenodd" clip-rule="evenodd" d="M25.2 13.985C25.2 8.26735 20.9248 3.54933 15.4 2.85965V6.04525C15.4 6.81928 14.7732 7.44675 14 7.44675C13.2268 7.44675 12.6 6.81928 12.6 6.04525V2.30986C12.6 0.943199 13.7847 -0.0309289 14.9364 0.000750769C15.0048 0.0026329 15.0729 0.00895811 15.1409 0.0152728C15.1635 0.0173713 15.1861 0.0194688 15.2087 0.0214016C22.3748 0.63485 28 6.65228 28 13.985C28 21.7253 21.732 28 14 28C6.26801 28 0 21.7253 0 13.985C0 10.2186 1.49285 6.68527 4.10051 4.07481C4.64724 3.52749 5.53367 3.52749 6.08041 4.07481C6.62714 4.62213 6.62714 5.50952 6.08041 6.05684C3.99265 8.14685 2.8 10.9696 2.8 13.985C2.8 20.1772 7.81441 25.197 14 25.197C20.1856 25.197 25.2 20.1772 25.2 13.985ZM12.3929 15.6795C12.2632 15.5496 12.1519 15.4083 12.0591 15.2587L12.0563 15.2615L7.41486 7.77871C7.33329 7.6472 7.37366 7.47438 7.50503 7.39272C7.59549 7.33649 7.70998 7.33649 7.80044 7.39272L15.275 12.039L15.2722 12.0419C15.4217 12.1348 15.563 12.2462 15.6928 12.3762C16.604 13.2884 16.604 14.7673 15.6928 15.6795C14.7816 16.5917 13.3042 16.5917 12.3929 15.6795Z" fill="#C4C4C4"/>
</svg>

<svg width="28" height="28" fill="none" xmlns="http://www.w3.org/2000/svg"><path fill-rule="evenodd" clip-rule="evenodd" d="M25.2 13.985A11.21 11.21 0 0015.4 2.86v3.185a1.4 1.4 0 11-2.8 0V2.31C12.6.943 13.785-.03 14.936 0c.069.003.137.009.205.015l.068.006C22.375.635 28 6.652 28 13.985 28 21.725 21.732 28 14 28S0 21.725 0 13.985c0-3.766 1.493-7.3 4.1-9.91a1.399 1.399 0 011.98 0 1.403 1.403 0 010 1.982 11.177 11.177 0 00-3.28 7.928c0 6.192 5.014 11.212 11.2 11.212 6.186 0 11.2-5.02 11.2-11.212zM12.393 15.68a2.344 2.344 0 01-.334-.421l-.003.002L7.415 7.78a.28.28 0 01.385-.386l7.475 4.646-.003.003a2.337 2.337 0 01.42 3.638 2.332 2.332 0 01-3.3 0z" fill="#C4C4C4"/></svg>
